svg/business/exchange_dollar_line.svg

<?xml version="1.0" encoding="UTF-8"?>
<svg width="24px" height="24px" viewBox="0 0 24 24" version="1.1" xmlns="http://www.w3.org/2000/svg" xmlns:xlink="http://www.w3.org/1999/xlink">
    <title>exchange_dollar_line</title>
    <g id="Icon" stroke="none" stroke-width="1" fill="none" fill-rule="evenodd">
        <g id="Business" transform="translate(-576.000000, -96.000000)" fill-rule="nonzero">
            <g id="exchange_dollar_line" transform="translate(576.000000, 96.000000)">
                <rect id="矩形" x="0" y="0" width="24" height="24"></rect>
                <path d="M3.71277455,11.1627035 L6.39062455,12.9670035 C7.39686455,13.6450035 6.72542455,15.2137035 5.54022455,14.9537035 L4.47686455,14.7204035 C5.33753455,17.0968035 7.30719455,19.0268035 9.93148455,19.7300035 C13.7625346,20.7565035 17.6913346,18.8202035 19.2809346,15.3252035 C19.5096346,14.8225035 20.1025346,14.6003035 20.6052346,14.8289035 C21.1080346,15.0576035 21.3301346,15.6505035 21.1015346,16.1532035 C19.1137346,20.5236035 14.2048346,22.9456035 9.41384455,21.6619035 C5.41001455,20.5890035 2.63000455,17.2334035 2.09419455,13.3742035 C2.03509455,12.9485035 2.00325455,12.5166035 2,12.0809035 C1.99346455,11.1784035 2.99550455,10.6794035 3.71277455,11.1627035 Z M12.0000346,6.00000347 C12.5128846,6.00000347 12.9355437,6.38604776 12.993307,6.88338322 L13.0000346,7.00000347 L13.0000346,8.00000347 L15.0000346,8.00000347 C15.5523346,8.00000347 16.0000346,8.44772347 16.0000346,9.00000347 C16.0000346,9.5128349 15.6140075,9.93551 15.1166585,9.99327567 L15.0000346,10.0000035 L10.0000346,10.0000035 C9.72389455,10.0000035 9.50003455,10.2239035 9.50003455,10.5000035 C9.50003455,10.7454257 9.67691159,10.9496035 9.91015955,10.9919464 L10.0000346,11.0000035 L14.0000346,11.0000035 C15.3807346,11.0000035 16.5000346,12.1193035 16.5000346,13.5000035 C16.5000346,14.8254755 15.4684877,15.9100412 14.1644089,15.9946857 L14.0000346,16.0000035 L13.0000346,16.0000035 L13.0000346,17.0000035 C13.0000346,17.5523035 12.5523346,18.0000035 12.0000346,18.0000035 C11.4871846,18.0000035 11.0645254,17.6139764 11.0067621,17.1166274 L11.0000346,17.0000035 L11.0000346,16.0000035 L9.00003455,16.0000035 C8.44775455,16.0000035 8.00003455,15.5523035 8.00003455,15.0000035 C8.00003455,14.4871535 8.38607884,14.0644943 8.88341431,14.006731 L9.00003455,14.0000035 L14.0000346,14.0000035 C14.2761346,14.0000035 14.5000346,13.7761035 14.5000346,13.5000035 C14.5000346,13.2545812 14.3231259,13.0504035 14.089899,13.0080605 L14.0000346,13.0000035 L10.0000346,13.0000035 C8.61932455,13.0000035 7.50003455,11.8807035 7.50003455,10.5000035 C7.50003455,9.17452187 8.53157222,8.08996494 9.83565907,8.00532116 L10.0000346,8.00000347 L11.0000346,8.00000347 L11.0000346,7.00000347 C11.0000346,6.44772347 11.4477346,6.00000347 12.0000346,6.00000347 Z M14.5904346,2.34327347 C18.5943346,3.41610347 21.3743346,6.77170347 21.9101346,10.6309035 C21.9692346,11.0566035 22.0010346,11.4885035 22.0042991,11.9242035 C22.0108346,12.8267035 21.0088346,13.3257035 20.2915346,12.8424035 L17.6135346,11.0381035 C16.6073346,10.3601035 17.2787346,8.79144347 18.4638346,9.05135347 L19.5273346,9.28457347 C18.6666346,6.90822347 16.6970346,4.97828347 14.0728346,4.27513347 C10.2418346,3.24860347 6.31296455,5.18495347 4.72333455,8.67994347 C4.49468455,9.18267347 3.90177455,9.40485347 3.39905455,9.17619347 C2.89632455,8.94754347 2.67414455,8.35463347 2.90279455,7.85190347 C4.89055455,3.48157347 9.79952455,1.05954347 14.5904346,2.34327347 Z" id="形状" fill="#09244B"></path>
            </g>
        </g>
    </g>
</svg>

<svg xmlns="http://www.w3.org/2000/svg" width="24" height="24"><g fill="none" fill-rule="nonzero"><path d="M0 0h24v24H0z"/><path fill="#09244B" d="m3.713 11.163 2.678 1.804c1.006.678.334 2.247-.85 1.987l-1.064-.234a8.002 8.002 0 0 0 14.804.605 1 1 0 0 1 1.82.828c-1.987 4.37-6.896 6.793-11.687 5.509A10.003 10.003 0 0 1 2 12.08c-.007-.903.996-1.402 1.713-.918M12 6a1 1 0 0 1 .993.883L13 7v1h2a1 1 0 0 1 .117 1.993L15 10h-5a.5.5 0 0 0-.09.992L10 11h4a2.5 2.5 0 0 1 .164 4.995L14 16h-1v1a1 1 0 0 1-1.993.117L11 17v-1H9a1 1 0 0 1-.117-1.993L9 14h5a.5.5 0 0 0 .09-.992L14 13h-4a2.5 2.5 0 0 1-.164-4.995L10 8h1V7a1 1 0 0 1 1-1m2.59-3.657a10.002 10.002 0 0 1 7.414 9.581c.007.903-.995 1.402-1.712.918l-2.678-1.804c-1.007-.678-.335-2.247.85-1.987l1.063.234A8.002 8.002 0 0 0 4.723 8.68a1 1 0 1 1-1.82-.828C4.89 3.482 9.8 1.06 14.59 2.343"/></g></svg>
